!!!!SEGMENT: pl-kk--kk-i-6--038-005_anonim--missa-de-beata-virgine-maria-agnus-dei.krn
!!!cenid: 16xx:1025
!!!COM: Anonim
!!!COM-rismid: pe30004985
!!!CDT:
!!!CNT:
!!!OPR: Missa de Beata Virgine Maria
!!!OTL: Agnus Dei
!!!OMV: 005
!!!PDT:
!!!AGN: Sacred; Mass
!!!SMS-siglum: PL-Kk
!!!SMS-shelfmark: Kk.I.6
!!!SMS-shelfwork: 038-005 M
!!!SMS-variant:
!!!SMS-altvar:
!!!NIFC-rismid: 1001136486
!!!URL-scan: http://repozytorium.nifc.pl/skany/pl-kk-nut--i-6
!!!ONB-nifc: UWAGA: C (skan 0052-0057, s. 101-111), T (skan 0164-0169, s. 133-143), B (skan 0273-0279, s. 129-141) Części Mszy: 1. Kyrie, 2. Et in terra, 3. Patrem, 4. Sanctus, 5. Agnus Dei. Uwaga: zmienna liczba głosów w niektórych ustępach
**kern	**text	**kern	**text	**kern	**text
*part3	*part3	*part2	*part2	*part1	*part1
*staff3	*staff3	*staff2	*staff2	*staff1	*staff1
*I"Baſsus.	*	*I"Tenor.	*	*I"Cantus.	*
*I'B	*	*I'T	*	*I'S	*
*clefC4	*	*clefC3	*	*clefC3	*
*k[]	*	*k[]	*	*k[]	*
*C:	*	*C:	*	*C:	*
*M2/1	*	*M2/1	*	*M2/1	*
*met(C|)	*	*met(C|)	*	*met(C|)	*
=1-	=1-	=1-	=1-	=1-	=1-
!!LO:TX:t=P:problem:all\left, middle or right:global
!LO:TX:a:t=A.4.	!	!LO:TX:b:t=A.\n4.	!	!LO:TX:b:t=A4.	!
!LO:TX:t=P:problem:przed kluczem inicjał A	!	!LO:TX:t=P:problem:przed kluczem inicjał A	!	!LO:TX:t=P:problem:przed kluczem inicjał A	!
00r	.	0g	A-	1r	.
.	.	.	.	0c	A-
=2-	=2-	=2-	=2-	=2-	=2-
.	.	1e	-Gnus	.	.
*	*	*lig	*	*	*
!	!	!LO:TX:a:t=2	!	!	!
!	!	!LO:TX:b:t=2	!	!	!
.	.	0c	De-	2A/	-Gnus
.	.	.	.	4F/	De-
.	.	.	.	4G/	.
=3-	=3-	=3-	=3-	=3-	=3-
1r	.	.	.	4A/	.
.	.	.	.	4B/	.
.	.	.	.	1c	.
!	!	!LO:TX:b:t=2	!	!	!
!	!	!LO:TX:a:t=2	!	!	!
0G	A-	0d	.	.	.
.	.	.	.	4B/	.
.	.	.	.	4A/	.
*	*	*Xlig	*	*	*
=4-	=4-	=4-	=4-	=4-	=4-
.	.	.	.	0B	.
1E	-Gnus	2G/	-i	.	.
*	*	*	*ij	*	*
.	.	2.g\	A-	.	.
=5-	=5-	=5-	=5-	=5-	=5-
0C	De-	.	.	2c/	i
.	.	4f\	.	.	.
*	*	*	*	*	*ij
.	.	4e\	.	1G	A-
.	.	4d\	.	.	.
.	.	2c/	.	.	.
.	.	2e\	-gnus	2c/	-Gnus
=6-	=6-	=6-	=6-	=6-	=6-
1D	.	1d	De-	2B/	De-
.	.	.	.	2A/	.
2C/	-i	4e\	.	2.c/	.
.	.	4f\	.	.	.
*	*ij	*	*	*	*
2c\	A-	4g\	.	.	.
.	.	8f\L	.	4d\	.
.	.	8g\J	.	.	.
=7-	=7-	=7-	=7-	=7-	=7-
2A/	-Gnus	0a	.	2e\	.
4F/	De-	.	.	1f	.
4G/	.	.	.	.	.
4A/	.	.	.	.	.
4B\	.	.	.	.	.
!	!	!	!	!LO:SIC:v:t=custos d	!
1c\	.	.	.	2e\	-i
*	*	*	*	*	*Xij
=8-	=8-	=8-	=8-	=8-	=8-
!	!	!LO:SIC:v:t=custos a	!	!	!
!	!	!	!	!LO:LB:g=original	!
.	.	1g	-i	2d\	A-
*	*	*	*Xij	*	*
2B\	.	.	.	4g\	.
.	.	.	.	4f\	.
!	!	!LO:PB:g=original	!	!	!
4c\	.	2r	.	4e\	.
4B\	.	.	.	4d\	.
4A/	.	1a\	A-	1c\	.
4G/	.	.	.	.	.
=9-	=9-	=9-	=9-	=9-	=9-
0F	.	.	.	.	.
.	.	2a\	-gnus	2c/	-gnus
.	.	1a	De-	2.f\	De-
.	.	.	.	4e\	.
=10-	=10-	=10-	=10-	=10-	=10-
!LO:SIC:v:t=custos C	!	!	!	!	!
1G	.	1g	-i	1d	.
!LO:LB:g=original	!	!	!	!	!
0C	-i	2r	.	1c	-i
*	*Xij	*	*	*	*
.	.	2g\	qui	.	.
=11-	=11-	=11-	=11-	=11-	=11-
.	.	4g\	tol-	2r	.
.	.	4f\	.	.	.
.	.	4e\	.	2g\	qui
.	.	4d\	.	.	.
1C	qui	1.e	.	4g\	tol-
.	.	.	.	4f\	.
.	.	.	.	4e\	.
.	.	.	.	4d\	.
=12-	=12-	=12-	=12-	=12-	=12-
*lig	*	*	*	*	*
1E	tol-	.	.	4c/	.
.	.	.	.	4B/	.
.	.	2c/	-lis	4B/	.
.	.	.	.	8A/L	.
.	.	.	.	8G/J	.
1D	.	1.d	pec-	1A	.
*Xlig	*	*	*	*	*
=13-	=13-	=13-	=13-	=13-	=13-
2G/	-lis	.	.	1B	-lis
2G/	pec-	2.g\	-ca-	.	.
1.c	-ca-	.	.	2r	.
.	.	4f\	.	.	.
!	!	!	!	!LO:SIC:v:t=custos g	!
.	.	1e\	-ta	2c/	pec-
=14-	=14-	=14-	=14-	=14-	=14-
!	!	!	!	!LO:PB:g=original	!
.	.	.	.	1.g	-ca-
2B\	-ta	2d\	mun-	.	.
1A	mun-	1c	-di	.	.
.	.	.	.	2f\	.
=15-	=15-	=15-	=15-	=15-	=15-
1G	-di	2g\	pec-	2e\	.
.	.	2g\	-ca-	4d\	.
.	.	.	.	4c/	.
!	!	!LO:TX:b:t=P:problem:♯ below	!	!	!
!	!	!LO:SIC:v:t=custos g	!	!	!
1rA	.	2f#X\	-ta	2d\	.
!	!	!LO:LB:g=original	!	!	!
.	.	1g\	mun-	2e\	-ta
=16-	=16-	=16-	=16-	=16-	=16-
2rF	.	.	.	1d	mun-
!	!	!LO:TX:b:t=P:problem:♯ below	!	!	!
2D/	pec-	2f#X\	.	.	.
2.G/	-ca-	2g\	-di	2d\	-di
*	*	*	*ij	*	*
.	.	2G/	pec-	2B/	pec-
4F/	-ta	.	.	.	.
=17-	=17-	=17-	=17-	=17-	=17-
2E/	mun-	2G/	-ca-	2B/	-ca-
2C/	.	2G/	-ta	1c	-ta
1D	.	1d	mun-	.	.
.	.	.	.	2B/	mun-
=18-	=18-	=18-	=18-	=18-	=18-
0C	-di	1G	-di	1c	-di
*	*	*	*Xij	*	*
.	.	1g	Mi-	2r	.
.	.	.	.	1g\	Mi-
=19-	=19-	=19-	=19-	=19-	=19-
!LO:SIC:v:t=custos A	!	!	!	!	!
1c	Mi-	1e	-ſe-	.	.
.	.	.	.	1e	-ſe-
!LO:LB:g=original	!	!	!	!	!
1A	-ſe-	2c/	-re-	.	.
.	.	2c/	-re	1c\	-re-
=20-	=20-	=20-	=20-	=20-	=20-
1F	-re-	1fny	.	.	.
.	.	.	.	1d	.
1G	-re	2d\	.	.	.
.	.	2.g\	no-	1e\	.
=21-	=21-	=21-	=21-	=21-	=21-
1A	no-	.	.	.	.
.	.	8f\L	.	.	.
.	.	8e\J	.	.	.
!	!	!	!	!LO:SIC:v:t=custos d	!
.	.	2f\	-bis	2c/	-re
*	*	*	*ij	*	*
!	!	!	!	!LO:LB:g=original	!
0G	-bis	0g	Mi-	0d	no-
=22-	=22-	=22-	=22-	=22-	=22-
.	.	.	.	.	.
2rD	.	1.e	-ſe-	0c	-bis
*	*ij	*	*	*	*
1C/	Mi-	.	.	.	.
=23-	=23-	=23-	=23-	=23-	=23-
.	.	.	.	.	.
!	!	!LO:SIC:v:t=custos A	!	!	!
2C/	-ſe-	2c/	-re-	.	.
!	!	!LO:LB:g=original	!	!	!
2F/	-re-	2A/	-re	2rA	.
*	*	*	*	*	*ij
2F/	-re	1A/	no-	1c\	Mi-
=24-	=24-	=24-	=24-	=24-	=24-
1D	no-	.	.	.	.
.	.	2d\	.	2B/	-ſe-
1C	-bis	2G/	-bis	2c/	-re-
*	*Xij	*	*	*	*
.	.	1g\	Mi-	2c/	-re
=25-	=25-	=25-	=25-	=25-	=25-
2rF	.	.	.	1A	no-
1c	Mi-	2f\	-ſe-	.	.
.	.	2g\	-re-	1G	-bis
*	*	*	*	*	*Xij
2B\	-ſe-	2g\	-re	.	.
=26-	=26-	=26-	=26-	=26-	=26-
*	*	*lig	*	*	*
2c\	-re-	1e	no-	2rA	.
2C/	-re	.	.	1c	Mi-
1G	no-	1d	.	.	.
.	.	.	.	2B/	-ſe-
*	*	*Xlig	*	*	*
=27-	=27-	=27-	=27-	=27-	=27-
!LO:SIC:v:t=custos c	!	!	!	!	!
1C	-bis	2c/	-bis	2.c/	-re-
*	*	*	*Xij	*	*
.	.	1g	Mi-	.	.
.	.	.	.	4d\	.
!LO:LB:g=original	!	!	!	!	!
2.c\	Mi-	.	.	2e\	.
.	.	2g\	-ſe-	2e\	-re
4B\	-ſe-	.	.	.	.
=28-	=28-	=28-	=28-	=28-	=28-
4A/	-re-	1.a	-re-	1f	no-
4G/	.	.	.	.	.
1F	.	.	.	.	.
.	.	.	.	1%5c	-bis
2E/	-re	2g\	-re	.	.
=29-	=29-	=29-	=29-	=29-	=29-
0F	no-	0f	no-	.	.
=30-	=30-	=30-	=30-	=30-	=30-
0C	-bis	0e	-bis.	.	.
=31||	=31||	=31||	=31||	=31||	=31||
*M2/1	*	*M2/1	*	*M2/1	*
*met(C|)	*	*met(C|)	*	*met(C|)	*
!LO:TX:b:t=A.5.	!	!LO:TX:b:t=a.\n5.	!	!LO:TX:b:t=a.5.	!
!LO:TX:t=P:problem:przed kluczem inicjał A	!	!LO:TX:t=P:problem:przed kluczem inicjał A	!	!LO:TX:t=P:problem:przed kluczem inicjał A	!
!LO:LB:g=original	!	!LO:LB:g=original	!	!LO:LB:g=original	!
00r	.	00r	.	00r	.
=32-	=32-	=32-	=32-	=32-	=32-
.	.	.	.	.	.
=33-	=33-	=33-	=33-	=33-	=33-
00r	.	0r	.	00r	.
=34-	=34-	=34-	=34-	=34-	=34-
.	.	1G	A-	.	.
.	.	1A	-Gnus	.	.
=35-	=35-	=35-	=35-	=35-	=35-
*	*	*lig	*	*	*
00r	.	1c	De-	1rc	.
.	.	1d	.	1G	A-
*	*	*Xlig	*	*	*
=36-	=36-	=36-	=36-	=36-	=36-
.	.	2c/	-i	1A	-Gnus
*	*	*	*ij	*	*
.	.	1f	A-	.	.
*	*	*	*	*lig	*
.	.	.	.	1c	De-
.	.	2e\	-Gnus	.	.
=37-	=37-	=37-	=37-	=37-	=37-
1rA	.	2f\	De-	1d	.
.	.	2d\	-i	.	.
*	*	*	*Xij	*Xlig	*
1C	A-	0r	.	1c	-i
=38-	=38-	=38-	=38-	=38-	=38-
*	*	*	*	*	*ij
1D	-Gnus	.	.	1.A	A-
*lig	*	*	*	*	*
1F	De-	2r	.	.	.
.	.	1f\	A-	2A/	-Gnus
=39-	=39-	=39-	=39-	=39-	=39-
*	*	*	*	*lig	*
1G	.	.	.	1B	De-
.	.	2e\	.	.	.
*Xlig	*	*	*	*	*
2.F/	.	0f	-gnus	1c	.
4E/	.	.	.	.	.
*	*	*	*	*Xlig	*
=40-	=40-	=40-	=40-	=40-	=40-
1D	.	.	.	1d	.
1C	-i	4e\	De-	0G	-i
*	*	*	*	*	*Xij
.	.	4d\	.	.	.
.	.	4e\	.	.	.
.	.	4f\	.	.	.
=41-	=41-	=41-	=41-	=41-	=41-
2rF	.	1g	.	.	.
2G/	A-	.	.	.	.
!	!	!LO:SIC:v:t=custos f	!	!	!
1A	-gnus	2e\	-i	0r	.
*	*	*	*ij	*	*
!	!	!LO:LB:g=original	!	!	!
.	.	1f\	A-	.	.
=42-	=42-	=42-	=42-	=42-	=42-
*lig	*	*	*	*	*
1c	De-	.	.	.	.
.	.	2e\	.	.	.
1d	.	2d\	-gnus	1G	A-
.	.	4g\	De-	.	.
.	.	4f\	.	.	.
*Xlig	*	*	*	*	*
=43-	=43-	=43-	=43-	=43-	=43-
!	!	!	!	!LO:SIC:v:t=custos d	!
2.c\	.	4e\	.	0c	-gn(us)
.	.	4d\	.	.	.
.	.	2.e\	.	.	.
4B\	.	.	.	.	.
1A	.	.	.	.	.
.	.	4d\	.	.	.
.	.	2.c/	.	.	.
=44-	=44-	=44-	=44-	=44-	=44-
*	*	*	*	*lig	*
!LO:SIC:v:t=custos C	!	!	!	!	!
!	!	!	!	!LO:LB:g=original	!
1G	.	.	.	1d	De-
.	.	8B/L	.	.	.
.	.	8A/J	.	.	.
.	.	2B/	-i	.	.
*	*	*	*Xij	*col	*
!LO:LB:g=original	!	!	!	!	!
0C	-i	1c	qui	2.e\	.
*	*	*	*	*Xlig	*
.	.	.	.	4f\	-i
*	*	*	*	*Xcol	*
=45-	=45-	=45-	=45-	=45-	=45-
.	.	2c/	tol-	1g	qui
.	.	1e	-lis	.	.
2rD	.	.	.	1c	.
*	*	*	*ij	*	*
2C/	qui	1g\	qui	.	.
=46-	=46-	=46-	=46-	=46-	=46-
1E	tol-	.	.	2G/	tol-
.	.	2G/	tol-	1B	-lis
2G/	-lis	1B	-lis	.	.
*	*	*	*Xij	*	*
2G/	pec-	.	.	2d\	.
=47-	=47-	=47-	=47-	=47-	=47-
2D/	-ca-	1d	pec-	2d\	pec-
2D/	-ta	.	.	2.A/	-ca-
1F	mun-	0c	-ca-	.	.
.	.	.	.	4B/	.
.	.	.	.	4c/	.
.	.	.	.	4d\	.
=48-	=48-	=48-	=48-	=48-	=48-
!LO:TX:t=P:problem:rozdzielacz słów:global	!	!	!	!	!
2C,</	-di	.	.	4e\	.
.	.	.	.	4f\	.
2C/	pec-	.	.	1g	.
2G/	-ca-	2B/	.	.	.
!	!	!LO:SIC:v:t=custos B	!	!	!
2A/	-ta	1c\	-ta	2f\	-ta
=49-	=49-	=49-	=49-	=49-	=49-
1G	mun-	.	.	1g	mun-
!	!	!LO:LB:g=original	!	!	!
.	.	2B/	mun-	.	.
1C,<	-di	1c	-di	0e	-di
=50-	=50-	=50-	=50-	=50-	=50-
0c	do-	2r	.	.	.
.	.	1g	Do-	.	.
.	.	.	.	0r	.
.	.	1e\	-na	.	.
=51-	=51-	=51-	=51-	=51-	=51-
1A	-na	.	.	.	.
.	.	2.c/	no-	.	.
1.F	no-	.	.	1.c	do-
.	.	4B/	.	.	.
.	.	1A/	.	.	.
=52-	=52-	=52-	=52-	=52-	=52-
.	.	.	.	.	.
2F/	-bis	2c/	-bis	2A/	-na
!LO:SIC:v:t=custos F	!	!	!	!	!
1C	pa-	1c	pa-	2G/	no-
!	!	!	!	!LO:SIC:v:t=custos F	!
.	.	.	.	2G/	-bis
=53-	=53-	=53-	=53-	=53-	=53-
!LO:LB:g=original	!	!	!	!LO:LB:g=original	!
1F	-cem	2c/	-cem	4F/	pa-
.	.	.	.	4G/	.
*	*	*	*ij	*	*
.	.	1f	Do-	4A/	.
.	.	.	.	4B/	.
0r	.	.	.	1c	.
.	.	2e\	-na	.	.
=54-	=54-	=54-	=54-	=54-	=54-
.	.	1d	no-	1G	-cem
2r	.	2e\	.	0r	.
*	*ij	*	*	*	*
1c\	do-	1e\	.	.	.
=55-	=55-	=55-	=55-	=55-	=55-
.	.	.	.	.	.
2B\	-na	2d\	.	.	.
2c\	no-	2e\	.	2r	.
*	*	*	*	*	*ij
2c\	-bis	2e\	bis	1g\	do-
=56-	=56-	=56-	=56-	=56-	=56-
*	*	*lig	*	*	*
1A	pa-	1c	pa-	.	.
.	.	.	.	2f\	-na
1G,<	-cem	1d	.	2g\	no-
*	*Xij	*	*	*	*
.	.	.	.	2g\	-bis
*	*	*Xlig	*	*	*
=57-	=57-	=57-	=57-	=57-	=57-
*	*	*	*	*lig	*
!	!	!LO:SIC:v:t=custos g	!	!	!
1C	Do-	2c/	-cem	1e	pa-
*	*	*	*Xij	*	*
!	!	!LO:LB:g=original	!	!	!
.	.	1g	do-	.	.
1D	-na	.	.	1d	.
!	!	!LO:TX:b:t=P:problem:# below	!	!	!
.	.	2f#X\	-na	.	.
*	*	*	*	*Xlig	*
=58-	=58-	=58-	=58-	=58-	=58-
2E/	no-	2g\	no-	1G	-cem
*	*	*	*	*	*Xij
2C/	-bis	2e\	-bis	.	.
1G	pa-	1d	pa-	2rA	.
.	.	.	.	2G/	do-
=59-	=59-	=59-	=59-	=59-	=59-
!	!	!LO:N:vis=0	!	!	!
2C,</	-cem	00.c	-cem.	2G/	-na
*	*ij	*	*	*	*
1F	Do-	.	.	4A/	no-
.	.	.	.	4B/	.
.	.	.	.	4c\	.
.	.	.	.	4d\	.
2E/	-na	.	.	2e\	.
=60-	=60-	=60-	=60-	=60-	=60-
2F/	no-	.	.	2A/	-bis
2C/	-bis	.	.	2.c/	pa-
0F	pa-	.	.	.	.
!	!	!	!	!LO:SIC:v:t=custos A	!
.	.	.	.	4B/	.
!	!	!	!	!LO:LB:g=original	!
.	.	.	.	4A/	.
.	.	.	.	4G/	.
=61-	=61-	=61-	=61-	=61-	=61-
!	!	!LO:TX:b:t=A D. 1689. ſcrip\nQuinta Vox in Ali(um).	!	!	!
.	.	.	.	2A/	.
.	.	.	.	2F/	.
!	!	!	!	!LO:TX:b:t=A D. 1689.  15. <..> ſcript\nQuinta Vox in Ali(um).	!
!LO:N:vis=0	!	!	!	!LO:N:vis=0	!
1C;;	-cem	.	.	1G	-cem.
*	*Xij	*	*	*	*
!LO:PB:g=original	!	!LO:PB:g=original	!	!LO:PB:g=original	!
=-	=-	=-	=-	=-	=-
*-	*-	*-	*-	*-	*-
!!!system-decoration: [(s1,s2,s3)]
!!!ENC: Marta Chmielewska
!!!ND: 2021-03-24
!!!RDF**kern: < = below
!!!RDF**kern: > = above
!!!RDF**kern: l = terminal long
!!!ENC: Andrzej Kubiczek
!!!END: 2021-03-09
